X: 16
T:English Hornpipe. FK.16
T:Fisher's Hornpipe,aka. FK.16
T:Egg Hornpipe,aka. FK.16
M:C
L:1/8
Q:160
C:"MS 42 p 2"
S:Kidson's H'pipe MS,early 20thC.
R:Hornpipe
O:England
A:Leeds
N:Also China Orange,,Peckhover Walk,,CGP.
Z:vmp.John Bagnall
K:D
dc | dAFA GBAG | FAFA GBAG | FDFD GEGE | FDFD EDCB, |!
 dAFA GBAG | FAFA GBAG | FAdf gedc | d2 d2 d2 ||!
cd | ecAc eceg | fdBd fdbf | ecAc eBgf |dcBA A2 A2 |!
 BGFG BGdB | AFDF AFdB | BdcB AGFE | D2 D2 D2 |]
%Below tune: "This is Fisher's Hornpipe see Bell's Hornpipes"
